X: 170
T: SINGLE JIG: Old Favourite
C: C: Trad.; S: Various
C: Set Leaders: Tania, Anton, Sophie
Z: Anton Zille ed., Oleg Naumov arr.; shanachie at The Session
N: https://thesession.org/members/26966/sets/92422
R: Single Jig
M: 12/8
L: 1/8
Q: 3/8=116
K: Gmaj
|:"G"B3 BAB dBA G2B|"C"ded d2B "D"ded B2A|
"G"~B3 BAB dBA "G"G2B|1 "C"ded "D"cBA "G"G3 "D"G2A:|2 "C"ded "D"cBA "G"G3 "D"GBd||
"Em"g3 "D"fgf "C"e/f/ge d2B|"Am"ded d2B "D"ded B2d|
"Em"~g3 "D"fgf "C"ege d2B|"D"ded cBA "G"G2G GBd|
"Em"g2g "D"fgf "C"e/f/ge "D/B"d2B|"Am"ded d2B "D"ded B2d|
"Em"~g3 "D"fgf|"C"ege "D/B"edB|"C"dge dge "D"dge dBA||

